X:1
T:Leola.
T:LEOLA.
T:SCOTT  JOPLIN. Composer of “Maple Leaf Rag” “Binks’ Waltz” Etc.
T:Two-Step.
T:Respectfully dedicated to Miss Minnie Wade.
T:  Notice! Don’t play this piece fast. It is never right to play “rag-time” fast.  Author
T:Public Domain
T:Public Domain
T:Public Domain
T:Public Domain
T:Public Domain
C:Scott Joplin
Z:Public Domain
%%score { ( 1 3 ) | ( 2 4 ) }
L:1/8
Q:1/4=60
M:2/4
K:Ab
V:1 treble nm="Piano" snm="Pno."
V:3 treble 
V:2 bass 
V:4 bass 
V:1
"^Slow march tempo." z |:!mf! z/ e'/c'/a/ e/fc/ | d/G/f/e/ d/B/G/E/ | z/ e'/c'/a/ e/fc/ | %4
 d/G/f/e/ d/B/G/E/ | Bc/B/ A/B/c | ef/e/ d/e/f | z/ (A/F/=B,/) z/ (=B/A/=D/) | %8
 z/!<(! (=d/F/A/)!<)! (e/A/c/e/) |!f! [Aa]/[Gg]/[Ff]/[Ee]/ [DFBd][=DFA=d] | e>c d/ec/ | d>B c/dB/ | %12
 c>A B/cA/ | [Aa]/[Gg]/[Ff]/[Ee]/ [DFBd][=DFA=d] | e>c d/ec/ | [Gd]>B c/d/F/G/ |1 A2- A z :|2 %17
 Ac [cf][c^f] |:!f! z/ [eg]/[eg]/[fa]/ [gb]/[eg][df]/ | [GB]/[A=B]/[=Ac]/[_Bd]/- [Bd]/[ce]/[Bd] | %20
 z/ [Ac]/[Ac]/[Bd]/ [ce]/[ca][cf]/ | [ce]/[Bd]/[Ac]/[ce]/- [ce]/[=B=d]/[ce] | %22
 z/ [Bd]/[Bd]/[ce]/ [df]/[Bd][GB]/ | [EG]/[FA]/[^F=A]/[GB]/- [GB]/[_Ac]/[Bd] | %24
 z/ [Ac]/[Ac]/[Bd]/ [ce]/[ca][cf]/ | [ce]/[ca]/[db]/[ec']/- [ec']/[ce]/[cf]/[c^f]/ | %26
 z/ [eg]/[eg]/[fa]/ [gb]/[eg][df]/ | [GB]/[A=B]/[=Ac]/[_Bd]/- [Bd]/[ce]/[Bd] | %28
 z/ [Ac]/e/A/ _G/[ce]f/ | dA/d/!>(! f/af/!>)! |!mf! z/ B/A/F/ =B/AF/ | c/A/E/e/- e/c/E/F/ | %32
 A>B c/Bc/ |1 [CEA]!<(!c [cf][c^f]!<)! :|2 [CEA]2 [Acea] z ||!mf! z/ e'/c'/a/ e/fc/ | %36
 d/G/f/e/ d/B/G/E/ | z/ e'/c'/a/ e/fc/ | d/G/f/e/ d/B/G/E/ | Bc/B/ A/B/c | ef/e/ d/e/f | %41
 z/ (A/F/=B,/) z/ (=B/A/=D/) | z/ (=d/F/A/) (e/A/c/e/) |!f! [Aa]/[Gg]/[Ff]/[Ee]/ [DFBd][=DFA=d] | %44
 e>c d/ec/ | d>B c/dB/ | c>A B/cA/ | [Aa]/[Gg]/[Ff]/[Ee]/ [DFBd][=DFA=d] | e>c d/ec/ | %49
 [Gd]>B c/d/F/G/ | [CA]2 [Aca] z |:[K:Db]!mp! A/c/e/[cgb]/- [cgb]/c/[cga] | %52
 A/c/e/[cgb]/- [cgb]/c/[cga] | d/a/e/a/ f/a/e/d/- | (d/B/d/=e/) (f/A/B/d/) | %55
 A/c/e/[cgb]/- [cgb]/c/[cga] | A/c/e/[cgb]/- [cgb]/c/[cga] | d/a/e/a/ f/a/e/d/- | %58
 d/(B/d/=e/ f/)d/A/G/ | F/=A/c/[Aeg]/- [Aeg]/A/[Aef] | F/=A/c/[Aeg]/- [Aeg]/A/[Aef] | %61
 B/f/c/f/ d/f/c/B/ | z/ (f/d/c/) B z | G/B/g/B/ d/[Bdb][Ada]/- | [Ada]>d (f/F/B/A/) | %65
 =G/B/d/_G/- G/f/e |1 [Fd](A/B/ d/c/B/__B/) :|2 [Fd]2 (e/c/e/c/) |: %68
[K:Ab]!mf! (d/e/f/g/) (a/d/e/d/) | ca/f/- f/c/e/c/ | dg/f/- f/d/e/d/ | ca/f/- f/c/e/c/ | %72
 (d/e/f/g/) f2 | [cfac']a/f/- f/(c/d/c/) | [c=egb]g/=e/- e/(c/d/c/) | f2!mf! (e/c/e/c/) | %76
 (d/e/f/g/) (a/d/e/d/) | ca/f/- f/c/e/c/ | dg/f/- f/d/e/d/ | ca/f/- f/c/e/c/ | %80
 (d/e/f/g/) (a/g/a/b/) | [cac']a/f/- f/c/e/c/ | dg/f/- f/G/e |1 A2 (e/c/e/c/) :|2 %84
 [CA]2 [Aca]!fine! |] %85
V:2
 [E,,E,] |: [A,,A,][E,A,C] [C,C][=A,,=A,] | [B,,B,][E,G,D] [E,G,D][E,,E,] | %3
 [A,,A,][E,A,C] [C,C][=A,,=A,] | [B,,B,][E,G,D] [E,G,D]2 | [=E,G,C][E,G,C] [F,A,C][A,CF] | %6
 [=A,CF][A,CF] [B,DF][B,DF] | =D,2 F,2 | (A,=B, C2) | %9
 [F,,F,]/[E,,E,]/[D,,D,]/[C,,C,]/ [B,,,B,,][=B,,,=B,,] | [C,,C,][E,A,C] [A,,A,][=A,,=A,] | %11
 [B,,B,][E,G,D] [E,,E,][E,G,D] | [A,,A,][E,A,C] [A,,A,][_G,,_G,] | %13
 [F,,F,]/[E,,E,]/[D,,D,]/[C,,C,]/ [B,,,B,,][=B,,,=B,,] | [C,,C,][E,A,C] [A,,A,][=A,,=A,] | %15
 [B,,B,][E,G,D] [E,,E,][E,G,D] |1 [A,,A,][E,A,C] [E,A,C][E,,E,] :|2 %17
 [A,,A,][E,A,C] [E,A,C][=A,,=A,] |:!ped! [B,,B,][E,G,D]!ped-up!!ped! [E,,E,][E,G,D]!ped-up! | %19
!ped! [E,,E,][E,G,D]!ped-up!!ped! [E,,E,][E,G,D]!ped-up! | %20
!ped! [A,,A,][E,A,C]!ped-up!!ped! [E,,E,][E,A,C]!ped-up! | %21
!ped! [A,,A,][E,A,C]!ped-up!!ped! [A,,A,][^F,,^F,]!ped-up! | %22
!ped! [G,,G,][E,G,D]!ped-up!!ped! [E,,E,][E,G,D]!ped-up! | %23
!ped! [B,,B,][E,G,D]!ped-up!!ped! [E,,E,][E,G,D]!ped-up! | %24
!ped! [A,,A,][E,A,C]!ped-up!!ped! [E,,E,][E,A,C]!ped-up! | %25
!ped! [A,,A,][E,A,C]!ped-up!!ped! [A,,A,][=A,,=A,]!ped-up! | %26
!ped! [B,,B,][E,G,D]!ped-up!!ped! [E,,E,][E,G,D]!ped-up! | %27
!ped! [E,,E,][E,G,D]!ped-up!!ped! [E,,E,][E,G,D]!ped-up! | %28
!ped! [A,,A,][E,A,C]!ped-up!!ped! [E,,E,][A,,,A,,]!ped-up! | %29
!ped! [D,,D,][F,A,D]!ped-up!!ped! [A,,,A,,][F,A,D]!ped-up! | %30
!ped! [D,,D,][F,A,D]!ped-up!!ped! [=D,,=D,][F,A,=B,]!ped-up! | %31
!ped! [E,,E,][E,A,C]!ped-up! [F,A,C]2 |!ped! [F,,F,][B,,,B,,]!ped-up! [E,,E,]2 |1 %33
!ped! [A,,A,][E,A,C] [E,A,C][=A,,=A,]!ped-up! :|2 [A,,A,][E,,E,][A,,,A,,] [E,,E,] || %35
 [A,,A,][E,A,C] [C,C][=A,,=A,] | [B,,B,][E,G,D] [E,G,D][E,,E,] | [A,,A,][E,A,C] [C,C][=A,,=A,] | %38
 [B,,B,][E,G,D] [E,G,D]2 | [=E,G,C][E,G,C] [F,A,C][A,CF] | [=A,CF][A,CF] [B,DF][B,DF] | =D,2 F,2 | %42
 (A,=B, C2) | [F,,F,]/[E,,E,]/[D,,D,]/[C,,C,]/ [B,,,B,,][=B,,,=B,,] | %44
 [C,,C,][E,A,C] [A,,A,][=A,,=A,] | [B,,B,][E,G,D] [E,,E,][E,G,D] | %46
 [A,,A,][E,A,C] [A,,A,][_G,,_G,] | [F,,F,]/[E,,E,]/[D,,D,]/[C,,C,]/ [B,,,B,,][=B,,,=B,,] | %48
 [C,,C,][E,A,C] [A,,A,][=A,,=A,] | [B,,B,][E,G,D] [E,,E,][E,G,D] | [A,,A,]E,A,, z |: %51
[K:Db] [E,,E,][A,CG]"^legato" [A,,,A,,][A,CG] | [E,,E,][A,CG] [E,,E,][=E,,=E,] | %53
 [F,,F,][A,DF] [D,,D,][A,DF] | [=G,B,D=E]2 [A,DF]2 | [E,,E,][A,CG] [A,,,A,,][A,CG] | %56
 [E,,E,][A,CG] [E,,E,][=E,,=E,] | [F,,F,][A,DF] [D,,D,][A,DF] | %58
 [=G,B,D=E]2 [A,DF]/[D,D]/[C,C]/[B,,B,]/ | [=A,,=A,][A,EF] [F,,F,][A,EF] | %60
 [=A,,=A,][A,EF] [F,,F,][A,EF] | [B,,B,][B,DF] [B,,B,][B,DF] | [=A,EF]2 [B,DF] z | %63
 [E,,E,][B,EG] [G,,G,][=E,,=E,] | [F,,F,][A,DF] [A,,A,][A,DF] | %65
 [E,,E,][=G,B,E] [A,,,A,,][_G,A,C] |1 [D,,D,][F,A,D] [A,DF][=D,,=D,] :|2 %67
 [D,,D,][D,D] [A,,A,][_G,,_G,] |: %68
[K:Ab]!ped! F,"^grandioso"[F,A,D]!ped-up!!ped! _F,[F,A,D]!ped-up! | %69
!ped! [E,,E,][E,A,C]!ped-up!!ped! [A,,A,][=A,,=A,]!ped-up! | %70
!ped! [B,,B,][E,G,D]!ped-up!!ped! [E,,E,][G,,G,]!ped-up! | %71
!ped! [A,,A,][E,A,C]!ped-up!!ped! [A,,A,][_G,,_G,]!ped-up! | %72
!ped! F,[F,A,D]!ped-up!!ped! D,[F,A,D]!ped-up! | %73
!ped! [C,,C,][F,A,C]!ped-up!!ped! [C,,C,][F,A,C]!ped-up! | %74
!ped! [C,,C,][=E,B,C]!ped-up!!ped! [C,,C,][E,B,C]!ped-up! | %75
 [F,A,C]2!ped! [A,,A,][_G,,_G,]!ped-up! | %76
!ped! [F,,F,][F,A,D]!ped-up!!ped! [_F,,_F,][F,A,D]!ped-up! | %77
!ped! [E,,E,][E,A,C]!ped-up!!ped! [A,,A,][=A,,=A,]!ped-up! | %78
!ped! [B,,B,][E,G,D]!ped-up!!ped! [E,,E,][G,,G,]!ped-up! | %79
!ped! [A,,A,][E,A,C]!ped-up!!ped! [A,,A,][_G,,_G,]!ped-up! | %80
!ped! [F,,F,][F,A,D]!ped-up!!ped! [_F,,_F,][F,A,D]!ped-up! | %81
!ped! [E,,E,][E,A,C]!ped-up!!ped! [A,,A,][=A,,=A,]!ped-up! | %82
!ped! [B,,B,][E,G,D]!ped-up!!ped! [E,,E,][E,G,D]!ped-up! |1 %83
!ped! [A,,A,][E,A,C]!ped-up!!ped! [A,,A,][_G,,_G,]!ped-up! :|2 [A,,A,][E,,E,][A,,,A,,] |] %85
V:3
 x |: x4 | x4 | x4 | x4 | x4 | x4 | x4 | x4 | x4 | [EA]2- [EA]<^F | G2- G<G | A2 z/ E3/2 | x4 | %14
 [EA]2- [EA]<^F | x4 |1 x4 :|2 x4 |: x4 | x4 | x4 | x4 | x4 | x4 | x4 | x4 | x4 | x4 | %28
 x/ x/ x _G2 | [FA]4 | x4 | x4 | [=DF]2 [_DG]2 |1 x4 :|2 x4 || x4 | x4 | x4 | x4 | x4 | x4 | x4 | %42
 x4 | x4 | [EA]2- [EA]<^F | G2- G<G | A2 z/ E3/2 | x4 | [EA]2- [EA]<^F | x4 | x4 |:[K:Db] x4 | x4 | %53
 x4 | x4 | x4 | x4 | x4 | x4 | x4 | x4 | x4 | x4 | x4 | x4 | =G>_G G[Gc] |1 x4 :|2 x4 |:[K:Ab] x4 | %69
 x4 | x4 | x4 | x2 a/g/a/b/ | x4 | x4 | x4 | x4 | x4 | x4 | x4 | x4 | x4 | x4 |1 x4 :|2 x3 |] %85
V:4
 x |: x4 | x4 | x4 | x4 | x4 | x4 | x4 | x4 | x4 | x4 | x4 | x4 | x4 | x4 | x4 |1 x4 :|2 x4 |: x4 | %19
 x4 | x4 | x4 | x4 | x4 | x4 | x4 | x4 | x4 | x4 | x4 | x4 | x4 | x4 |1 x4 :|2 x4 || x4 | x4 | x4 | %38
 x4 | x4 | x4 | x4 | x4 | x4 | x4 | x4 | x4 | x4 | x4 | x4 | x4 |:[K:Db] x4 | x4 | x4 | x4 | x4 | %56
 x4 | x4 | x4 | x4 | x4 | x4 | x4 | x4 | x4 | x4 |1 x4 :|2 x4 |:[K:Ab] [F,,F,]2 [_F,,_F,]2 | x4 | %70
 x4 | x4 | [F,,F,]2 [D,,D,]2 | x4 | x4 | x4 | x4 | x4 | x4 | x4 | x4 | x4 | x4 |1 x4 :|2 x3 |] %85

